shader_type particles;

const float sigma = 10.0f;
const float rho = 28.0f;
const float beta = 8.0 / 3.0;
const float frame_rate = 60.0f;
void start() {
	// Called when a particle is spawned.
}

void process() {
	// Called every frame on existing particles (according to the Fixed FPS property).
}
